flaticon/hand-gestures/middle-finger-1.svg

<svg xmlns="http://www.w3.org/2000/svg" width="32" height="32" viewBox="0 0 24 24">
    <path d="M 19.199219 9.003906 L 19.199219 8.84375 C 19.199219 8.808594 19.191406 8.78125 19.179688 8.757812 C 19.164062 8.625 19.132812 8.5 19.089844 8.378906 C 18.855469 7.660156 18.171875 7.164062 17.398438 7.164062 C 17.003906 7.164062 16.648438 7.28125 16.371094 7.476562 C 16.351562 7.375 16.324219 7.273438 16.289062 7.179688 C 16.054688 6.460938 15.375 5.964844 14.597656 5.964844 C 14.238281 5.964844 13.878906 6.082031 13.601562 6.285156 L 13.601562 1.84375 C 13.601562 0.964844 13 0.203125 12.199219 0.046875 C 11.640625 -0.0742188 11.121094 0.046875 10.679688 0.40625 C 10.242188 0.765625 10 1.246094 10 1.804688 L 10 6.761719 C 9.921875 6.683594 9.839844 6.605469 9.71875 6.5625 C 9.160156 6.285156 8.5625 6.363281 8.039062 6.722656 C 7.519531 7.082031 7.199219 7.722656 7.199219 8.441406 L 7.199219 11.082031 L 6.601562 11.441406 C 6.589844 11.449219 6.574219 11.453125 6.5625 11.460938 C 5.351562 12.023438 4.800781 12.980469 4.800781 14.601562 L 4.800781 15.800781 C 4.800781 19.039062 6.921875 20.601562 7.601562 21.039062 L 7.601562 22.199219 C 7.601562 23.199219 8.402344 24 9.402344 24 L 16.398438 24 C 17.320312 24 18 23.039062 18 22.199219 L 18 20.921875 C 19.199219 19.28125 19.199219 18.960938 19.199219 15.761719 Z M 13.601562 7.804688 C 13.601562 7.242188 14.039062 6.804688 14.597656 6.804688 C 15.160156 6.804688 15.597656 7.242188 15.597656 7.804688 L 15.597656 12.203125 C 15.597656 12.761719 15.160156 13.203125 14.597656 13.203125 C 14.039062 13.203125 13.601562 12.761719 13.601562 12.203125 Z M 16.398438 9.003906 C 16.398438 8.441406 16.839844 8.003906 17.398438 8.003906 C 17.433594 8.003906 17.464844 8.003906 17.496094 8.007812 C 17.679688 8.027344 17.851562 8.09375 17.992188 8.195312 C 18.003906 8.203125 18.011719 8.210938 18.023438 8.21875 C 18.03125 8.226562 18.039062 8.230469 18.050781 8.238281 C 18.265625 8.421875 18.398438 8.695312 18.398438 9.003906 L 18.398438 11.402344 C 18.398438 11.960938 17.957031 12.402344 17.398438 12.402344 C 16.839844 12.402344 16.398438 11.960938 16.398438 11.402344 Z M 8 8.441406 C 8 8.003906 8.199219 7.601562 8.519531 7.363281 C 8.679688 7.242188 8.839844 7.203125 9 7.203125 C 9.121094 7.203125 9.242188 7.242188 9.320312 7.285156 C 9.71875 7.484375 10 7.964844 10 8.402344 L 10 8.804688 C 9.773438 8.929688 9.53125 9.132812 9.28125 9.441406 C 8.984375 9.808594 8.546875 10.199219 8 10.585938 Z M 17.398438 20.402344 L 16.800781 20.402344 C 16.558594 20.402344 16.398438 20.5625 16.398438 20.800781 C 16.398438 21.039062 16.558594 21.199219 16.800781 21.199219 L 17.199219 21.199219 L 17.199219 22.199219 C 17.199219 22.640625 16.839844 23.199219 16.398438 23.199219 L 9.402344 23.199219 C 8.839844 23.199219 8.402344 22.761719 8.402344 22.199219 L 8.402344 21.382812 C 8.828125 21.523438 9.265625 21.601562 9.679688 21.601562 C 10 21.601562 10.359375 21.558594 10.640625 21.441406 C 11.238281 21.242188 11.679688 20.761719 11.960938 20.160156 C 12.039062 19.960938 11.960938 19.722656 11.761719 19.640625 C 11.558594 19.5625 11.320312 19.640625 11.238281 19.839844 C 11.039062 20.242188 10.761719 20.519531 10.359375 20.679688 C 9.675781 20.945312 8.851562 20.742188 8.253906 20.484375 C 8.238281 20.46875 8.21875 20.453125 8.199219 20.441406 C 8.082031 20.402344 5.601562 19.082031 5.601562 15.800781 L 5.601562 14.601562 C 5.601562 13.28125 6 12.5625 6.960938 12.164062 C 6.960938 12.152344 6.964844 12.144531 6.964844 12.140625 C 6.976562 12.136719 6.988281 12.128906 7 12.121094 C 8.28125 11.441406 9.359375 10.644531 9.921875 9.921875 C 10.199219 9.601562 10.601562 9.242188 10.960938 9.484375 C 11.359375 9.761719 11.558594 10.5625 11.320312 11.003906 C 10.601562 12.242188 8.800781 13.683594 7.839844 13.921875 C 7.640625 13.960938 7.519531 14.203125 7.5625 14.402344 C 7.640625 14.5625 7.800781 14.683594 7.960938 14.683594 C 8 14.683594 8.039062 14.683594 8.039062 14.683594 C 8.570312 14.53125 9.292969 14.113281 10 13.5625 L 10 14.003906 C 10 14.242188 10.160156 14.402344 10.398438 14.402344 C 10.640625 14.402344 10.800781 14.242188 10.800781 14.003906 L 10.800781 12.867188 C 11.28125 12.40625 11.710938 11.898438 12 11.402344 C 12.441406 10.601562 12.160156 9.363281 11.398438 8.84375 C 11.300781 8.777344 11.085938 8.652344 10.800781 8.625 L 10.800781 1.804688 C 10.800781 1.484375 10.921875 1.203125 11.160156 1.003906 C 11.398438 0.804688 11.679688 0.726562 12 0.804688 C 12.480469 0.925781 12.800781 1.363281 12.800781 1.84375 L 12.800781 12.203125 C 12.800781 13.203125 13.601562 14.003906 14.597656 14.003906 C 15.378906 14.003906 16.039062 13.515625 16.289062 12.824219 C 16.59375 13.0625 16.980469 13.203125 17.398438 13.203125 C 17.769531 13.203125 18.113281 13.09375 18.398438 12.902344 L 18.398438 15.800781 C 18.398438 18.882812 18.398438 19.035156 17.398438 20.402344 Z M 17.398438 20.402344"/>
</svg>

<svg xmlns="http://www.w3.org/2000/svg" width="32" height="32" viewBox="0 0 24 24">
    <path d="M19.2 9.004v-.16a.186.186 0 0 0-.02-.086 1.73 1.73 0 0 0-.09-.38 1.778 1.778 0 0 0-1.692-1.214c-.394 0-.75.117-1.027.313a1.848 1.848 0 0 0-.082-.297 1.774 1.774 0 0 0-1.691-1.215c-.36 0-.72.117-.996.32V1.844c0-.88-.602-1.64-1.403-1.797a1.736 1.736 0 0 0-1.52.36c-.437.359-.679.84-.679 1.398v4.957a.75.75 0 0 0-.281-.2c-.559-.277-1.156-.199-1.68.16-.52.36-.84 1-.84 1.72v2.64l-.597.36c-.012.007-.028.011-.04.019-1.21.562-1.761 1.52-1.761 3.14v1.2c0 3.238 2.12 4.8 2.8 5.238v1.16c0 1 .801 1.801 1.801 1.801h6.996C17.32 24 18 23.04 18 22.2v-1.278c1.2-1.64 1.2-1.961 1.2-5.16zm-5.598-1.2c0-.562.437-1 .996-1 .562 0 1 .438 1 1v4.4a.99.99 0 0 1-1 1 .989.989 0 0 1-.996-1zm2.796 1.2a.99.99 0 0 1 1.098-.996c.184.02.356.086.496.187.012.008.02.016.031.024.008.008.016.011.028.02a.999.999 0 0 1 .347.765v2.398c0 .559-.441 1-1 1-.558 0-1-.441-1-1zM8 8.44c0-.437.2-.84.52-1.078.16-.12.32-.16.48-.16.121 0 .242.04.32.082.399.2.68.68.68 1.117v.403c-.227.125-.469.328-.719.636-.297.368-.734.758-1.281 1.145zm9.398 11.961h-.597c-.242 0-.403.16-.403.399 0 .238.16.398.403.398h.398v1c0 .442-.36 1-.8 1H9.401c-.562 0-1-.437-1-1v-.816c.426.14.864.219 1.278.219.32 0 .68-.043.96-.16.598-.2 1.04-.68 1.32-1.282.08-.2 0-.437-.198-.52-.203-.078-.442 0-.524.2-.199.402-.476.68-.879.84-.683.265-1.507.062-2.105-.196a.295.295 0 0 0-.055-.043c-.117-.039-2.597-1.359-2.597-4.64v-1.2c0-1.32.398-2.039 1.359-2.437 0-.012.004-.02.004-.023.012-.004.023-.012.035-.02 1.281-.68 2.36-1.476 2.922-2.2.277-.32.68-.679 1.039-.437.398.278.598 1.079.36 1.52-.72 1.238-2.52 2.68-3.481 2.918-.2.039-.32.281-.277.48.078.16.238.282.398.282h.078c.531-.153 1.254-.57 1.961-1.121v.44c0 .24.16.4.398.4.243 0 .403-.16.403-.4v-1.136c.48-.46.91-.969 1.199-1.465.441-.8.16-2.039-.602-2.558a1.306 1.306 0 0 0-.597-.219v-6.82c0-.32.12-.602.36-.801.237-.2.519-.277.839-.2.48.122.8.56.8 1.04v10.36c0 1 .802 1.8 1.798 1.8a1.79 1.79 0 0 0 1.691-1.18c.305.239.691.38 1.11.38.37 0 .714-.11 1-.302v2.899c0 3.082 0 3.234-1 4.601zm0 0"/>
</svg>
